X:1
T:Loch Lomond
C:Traditional (Scottish)
M:4/4
L:1/4
Q:1/4=100
K:A
A2 B c | d2 c d | e4 | e2 d e | c4 | A2 B c | d2 c d | e4 | A2 e e | e2 d c | B4 | c2 d e | d2 c B | A4 |]
w: By yon | bon-nie banks and | by yon bon-nie | braes where the | sun shines bright | on Loch Lo-mond | where me and my | true love were | ev-er wont to | go on the | bon-nie bon-nie | banks of Loch | Lo-mond I'll be | com-ing back to | thee or you'll come | back to me and | ye'll come back to | Loch Lo-mond
